X: 11587
T: Eel At The Forge, The
R: reel
M: 4/4
K: Eminor
B/c/d|:~e3d BAGF|~E3F GAB/c/d|~e3d BAGF|GBAG FEDB|
~e3d BAGF|~E3F GAB/c/d|efgf edBA|F/E/EFD E4:|
|:~e3b gbeb|gbeg fedB|~e3b gbeB|dBAG FDB/c/d|
~e3g ~f3a|gefd edB/c/d|bgab gfed|egf/g/a gedB:|

